X:45
T:Tam Lin
M:2/2
L:1/8
K:Am
"Am"EA z A GABG|"F"F2 AF cFAF|"G"G2 BG DGBG|"Am"FGAc BA A2|
"Am"EA z A GABG|"F"F2 AF cFAF|"G"G2 BG DGBG|"Am"cBAG A2 z2:|
|"Am"a3 e ceAe|~a3 e ce A2|"G"g3 d BdGd|~g3 d Bd G2|
a ~e3 ceAe|a3 e ce A2|"F"F3 G "C"A3 B|"G"c2 dB "Am"cB A2:||
